src/assets/icons/heineken.svg

<svg width="124" height="28" viewBox="0 0 124 28" fill="none" xmlns="http://www.w3.org/2000/svg">
<g clip-path="url(#clip0_1_258509)">
<path d="M94.432 12.7382H91.424C90.6992 12.7382 90.1439 12.9293 89.5696 13.6245C88.9953 14.3197 85.3207 18.7602 85.3207 18.7602V12.7382H81.1465V28.1283C81.1475 28.3598 81.2356 28.5816 81.3917 28.7454C81.5479 28.9091 81.7593 29.0015 81.9801 29.0026H85.3169V21.626L88.9966 27.6573C89.5456 28.5581 90.0895 29.0026 91.3405 29.0026H94.7685L88.9157 19.4064L94.432 12.7382Z" fill="#8F90A6"/>
<path d="M76.7857 12.7382H67.4961V27.5458C67.4961 28.3565 68.255 29.0052 69.0621 29.0052H76.7857C77.0069 29.0045 77.2189 28.9121 77.3753 28.748C77.5317 28.5839 77.6199 28.3616 77.6205 28.1296V26.0267H72.2914C72.1248 26.025 71.9655 25.9543 71.8483 25.8301C71.731 25.7059 71.6653 25.5382 71.6653 25.3634V21.9417H76.4151V18.9712H71.6653V15.7167H77.6205V13.6205C77.6199 13.3885 77.5317 13.1662 77.3753 13.0021C77.2189 12.838 77.0069 12.7456 76.7857 12.7449" fill="#8F90A6"/>
<path d="M106.135 12.7382H96.8438V27.5458C96.8438 28.3565 97.6027 29.0052 98.4097 29.0052H106.135C106.356 29.0045 106.568 28.912 106.724 28.7479C106.88 28.5838 106.968 28.3615 106.968 28.1296V26.0267H101.639C101.473 26.0246 101.314 25.9538 101.197 25.8297C101.08 25.7055 101.014 25.5379 101.014 25.3634V21.9417H105.764V18.9712H101.014V15.7167H106.968V13.6205C106.968 13.3886 106.88 13.1663 106.724 13.0022C106.568 12.8381 106.356 12.7456 106.135 12.7449" fill="#8F90A6"/>
<path d="M47.0063 12.7382H42.832V28.1283C42.8334 28.36 42.9218 28.5817 43.0781 28.7454C43.2344 28.9091 43.446 29.0015 43.6669 29.0026H47.0038L47.0063 12.7382Z" fill="#8F90A6"/>
<path d="M38.2042 12.7382H28.9121V27.5458C28.9121 28.391 29.6774 29.0052 30.4794 29.0052H38.2042C38.4252 29.0042 38.6369 28.9116 38.793 28.7475C38.9492 28.5835 39.0372 28.3614 39.0378 28.1296V26.0267H33.7062C33.5397 26.0246 33.3808 25.9538 33.2639 25.8297C33.1469 25.7055 33.0813 25.5379 33.0813 25.3634V21.9417H37.8298V18.9712H33.0838V15.7167H39.0378V13.6205C39.0372 13.3887 38.9492 13.1666 38.793 13.0026C38.6369 12.8385 38.4252 12.7459 38.2042 12.7449" fill="#8F90A6"/>
<path d="M24.6991 12.7382H20.5249V18.9738H16.8819V12.7382H12.041V13.3777C12.2432 13.469 12.4147 13.6216 12.5335 13.8159C12.6523 14.0103 12.7129 14.2375 12.7076 14.4683V28.9999H16.8819V21.9444H20.5299V28.9999H24.7042L24.6991 12.7382Z" fill="#8F90A6"/>
<path d="M63.2834 12.7382V28.1283C63.2824 28.3598 63.1943 28.5816 63.0382 28.7454C62.8821 28.9091 62.6706 29.0015 62.4499 29.0026H59.8897L54.2582 19.6823C54.3359 20.2599 54.3748 20.8424 54.3746 21.4256V29.0026H51.2578V12.7382H53.2817C54.3139 12.7382 55.0652 13.1853 55.6054 14.0769C56.0645 14.8331 60.3223 21.8608 60.3223 21.8608C60.3223 21.8608 60.1692 21.3819 60.1692 20.0989V12.7382H63.2834Z" fill="#8F90A6"/>
<path d="M123.185 12.7382V13.3777C122.985 13.4725 122.817 13.6261 122.699 13.8197C122.582 14.0134 122.521 14.2388 122.523 14.4683V28.1256C122.523 28.3568 122.436 28.5786 122.28 28.7425C122.125 28.9063 121.914 28.9989 121.693 28.9999H119.137L113.504 19.6797C113.582 20.2572 113.621 20.8397 113.621 21.423V28.9999H110.504V12.7382H112.528C113.559 12.7382 114.311 13.1853 114.851 14.0769C115.311 14.8331 119.567 21.8608 119.567 21.8608C119.567 21.8608 119.415 21.3819 119.415 20.0989V12.7382H123.185Z" fill="#8F90A6"/>
<path d="M4.26985 18.6591C4.22703 18.7001 4.17208 18.7244 4.1142 18.728C4.05632 18.7316 3.99903 18.7142 3.95191 18.6788C3.9048 18.6433 3.87071 18.592 3.85536 18.5334C3.84002 18.4747 3.84434 18.4123 3.86761 18.3566C3.98145 17.9958 6.07743 11.2228 6.07743 11.2228L0.294195 6.81542C0.244068 6.78498 0.205419 6.73742 0.184703 6.68069C0.163987 6.62395 0.162459 6.56148 0.180375 6.50371C0.198292 6.44594 0.234567 6.39636 0.28314 6.36327C0.331713 6.33017 0.389643 6.31556 0.447251 6.32188H7.59534C7.59534 6.32188 9.69385 -0.444441 9.8039 -0.807965C9.81551 -0.867949 9.84654 -0.921877 9.89172 -0.960612C9.9369 -0.999347 9.99347 -1.02051 10.0518 -1.02051C10.1102 -1.02051 10.1667 -0.999347 10.2119 -0.960612C10.2571 -0.921877 10.2881 -0.867949 10.2997 -0.807965C10.4111 -0.445768 12.5096 6.32055 12.5096 6.32055C12.5096 6.32055 19.2934 6.32055 19.6564 6.32055C19.714 6.31424 19.7719 6.32885 19.8205 6.36194C19.8691 6.39504 19.9054 6.44461 19.9233 6.50238C19.9412 6.56016 19.9397 6.62263 19.9189 6.67936C19.8982 6.73609 19.8596 6.78365 19.8095 6.81409L16.36 9.445H12.2794L11.0144 5.37592L9.74951 9.445H5.67645L8.97917 11.9658L7.71424 16.0349L4.26985 18.6591Z" fill="#8F90A6"/>
</g>
<defs>
<clipPath id="clip0_1_258509">
<rect width="123" height="30" fill="white" transform="translate(0.18457 -1)"/>
</clipPath>
</defs>
</svg>

<svg width="124" height="28" fill="none" xmlns="http://www.w3.org/2000/svg"><g clip-path="url(#a)" fill="#8F90A6"><path d="M94.432 12.738h-3.008c-.725 0-1.28.191-1.854.886l-4.25 5.136v-6.022h-4.173v15.39a.9.9 0 0 0 .245.617.819.819 0 0 0 .588.258h3.337v-7.377l3.68 6.031c.549.901 1.093 1.346 2.344 1.346h3.428l-5.853-9.597 5.516-6.668ZM76.786 12.738h-9.29v14.808c0 .81.759 1.46 1.566 1.46h7.724a.818.818 0 0 0 .59-.258.9.9 0 0 0 .245-.618v-2.103h-5.33a.618.618 0 0 1-.443-.197.68.68 0 0 1-.183-.467v-3.421h4.75v-2.97h-4.75v-3.255h5.956V13.62a.9.9 0 0 0-.246-.618.818.818 0 0 0-.59-.257M106.135 12.738h-9.291v14.808c0 .81.759 1.46 1.566 1.46h7.725a.816.816 0 0 0 .589-.258.898.898 0 0 0 .244-.618v-2.103h-5.329a.619.619 0 0 1-.442-.197.68.68 0 0 1-.183-.467v-3.421h4.75v-2.97h-4.75v-3.255h5.954V13.62a.898.898 0 0 0-.244-.618.816.816 0 0 0-.589-.257M47.006 12.738h-4.174v15.39c.001.232.09.454.246.617a.82.82 0 0 0 .589.258h3.337l.002-16.265ZM38.204 12.738h-9.292v14.808c0 .845.765 1.46 1.567 1.46h7.725a.818.818 0 0 0 .589-.259.9.9 0 0 0 .245-.617v-2.103h-5.332a.618.618 0 0 1-.442-.197.68.68 0 0 1-.183-.467v-3.421h4.749v-2.97h-4.746v-3.255h5.954V13.62a.9.9 0 0 0-.245-.617.818.818 0 0 0-.589-.258M24.7 12.738h-4.175v6.236h-3.643v-6.236H12.04v.64c.202.091.374.244.492.438a1.2 1.2 0 0 1 .175.652V29h4.174v-7.056h3.648V29h4.174L24.7 12.738ZM63.283 12.738v15.39a.9.9 0 0 1-.245.617.819.819 0 0 1-.588.258h-2.56l-5.632-9.32c.078.577.117 1.16.117 1.743v7.577h-3.117V12.738h2.024c1.032 0 1.783.447 2.323 1.339.46.756 4.717 7.784 4.717 7.784s-.153-.48-.153-1.762v-7.36h3.114ZM123.185 12.738v.64c-.2.095-.368.248-.486.442-.117.193-.178.419-.176.648v13.658a.895.895 0 0 1-.243.616.813.813 0 0 1-.587.258h-2.556l-5.633-9.32c.078.577.117 1.16.117 1.743V29h-3.117V12.738h2.024c1.031 0 1.783.447 2.323 1.339.46.756 4.716 7.784 4.716 7.784s-.152-.48-.152-1.762v-7.36h3.77Z"/><path d="M4.27 18.66a.245.245 0 0 1-.318.02.266.266 0 0 1-.097-.147.278.278 0 0 1 .013-.176c.113-.361 2.21-7.134 2.21-7.134L.293 6.815a.262.262 0 0 1-.11-.134.278.278 0 0 1-.004-.177.264.264 0 0 1 .103-.14.244.244 0 0 1 .164-.042h7.148S9.694-.444 9.804-.808a.268.268 0 0 1 .088-.153.246.246 0 0 1 .32 0 .268.268 0 0 1 .088.153c.111.362 2.21 7.129 2.21 7.129h7.146a.244.244 0 0 1 .165.04.264.264 0 0 1 .102.141.277.277 0 0 1-.004.177.262.262 0 0 1-.11.135L16.36 9.445h-4.08l-1.266-4.07-1.264 4.07H5.676l3.303 2.52-1.265 4.07-3.444 2.624Z"/></g><defs><clipPath id="a"><path fill="#fff" transform="translate(.185 -1)" d="M0 0h123v30H0z"/></clipPath></defs></svg>
